toolkits/global/packages/global-context/img/icons/access.svg

<svg height="24" viewBox="0 0 24 24" width="24" xmlns="http://www.w3.org/2000/svg"><path d="m17 11c.5522847 0 1 .4477153 1 1v7h2.5c.2761424 0 .5.2238576.5.5v1.5h-18v-1.5c0-.2761424.22385763-.5.5-.5h2.5v-7c0-.5522847.44771525-1 1-1s1 .4477153 1 1v6.9996556h8v-6.9996556c0-.5522847.4477153-1 1-1zm-8 0 2 1v5l-2 1zm6 0v7l-2-1v-5zm-2.4265377-7.59857636 7.0355472 4.92488299c.4162533.29137735.5174853.86502537.226108 1.28127873-.1721584.24594054-.4534847.39241464-.7536934.39241464h-14.16284822c-.50810197 0-.92-.41189803-.92-.92 0-.30020869.1464741-.58153499.39241464-.75369337l7.03554718-4.92488299c.3443201-.2410241.8026045-.2410241 1.1469246 0zm-.5734623 2.03988748-3.65526982 2.55868888h7.31053962z" fill="#666" fill-rule="evenodd"/></svg>

<?xml version="1.0" encoding="UTF-8"?>
<svg width="24px" height="24px" viewBox="0 0 24 24" version="1.1" xmlns="http://www.w3.org/2000/svg" xmlns:xlink="http://www.w3.org/1999/xlink">
    <!-- Generator: Sketch 63.1 (92452) - https://sketch.com -->
    <title>icon-icon / access</title>
    <desc>Created with Sketch.</desc>
    <g id="icon-/-access" stroke="none" stroke-width="1" fill="none" fill-rule="evenodd">
        <path d="M17,11 C17.5522847,11 18,11.4477153 18,12 L18,19 L20.5,19 C20.7761424,19 21,19.2238576 21,19.5 L21,21 L3,21 L3,19.5 C3,19.2238576 3.22385763,19 3.5,19 L6,19 L6,12 C6,11.4477153 6.44771525,11 7,11 C7.55228475,11 8,11.4477153 8,12 L8,18.9996556 L16,18.9996556 L16,12 C16,11.4477153 16.4477153,11 17,11 Z M9,11 L11,12 L11,17 L9,18 L9,11 Z M15,11 L15,18 L13,17 L13,12 L15,11 Z M12.5734623,3.40142364 L19.6090095,8.32630663 C20.0252628,8.61768398 20.1264948,9.191332 19.8351175,9.60758536 C19.6629591,9.8535259 19.3816328,10 19.0814241,10 L4.91857588,10 C4.41047391,10 3.99857588,9.58810197 3.99857588,9.08 C3.99857588,8.77979131 4.14504998,8.49846501 4.39099052,8.32630663 L11.4265377,3.40142364 C11.7708578,3.16039954 12.2291422,3.16039954 12.5734623,3.40142364 Z M12,5.44131112 L8.34473018,8 L15.6552698,8 L12,5.44131112 Z" id="access" fill="#666666"></path>
    </g>
</svg>
